src/assets/nft-action/mint.svg

<svg fill="none" height="18" viewBox="0 0 18 18" width="18" xmlns="http://www.w3.org/2000/svg" xmlns:xlink="http://www.w3.org/1999/xlink"><linearGradient id="a" gradientUnits="userSpaceOnUse" x1="18" x2=".000001" y1="18" y2="-.000001"><stop offset="0" stop-color="#ffb8e0"/><stop offset=".348958" stop-color="#be9eff"/><stop offset=".703125" stop-color="#88c0fc"/><stop offset="1" stop-color="#86ff99"/></linearGradient><clipPath id="b"><path d="m0 0h18v18h-18z"/></clipPath><clipPath id="c"><path d="m4.5 4.7207h9v9h-9z"/></clipPath><g clip-path="url(#b)"><circle cx="9" cy="9" fill="url(#a)" r="9"/><g clip-path="url(#c)" stroke="#181a20" stroke-linecap="round" stroke-linejoin="round" stroke-width=".75"><path d="m6.75 12.5957 5.625-5.625-1.125-1.125-5.625 5.625z"/><path d="m10.125 6.9707 1.125 1.125"/><path d="m7.875 5.8457c0 .19892.07902.38968.21967.53033.14065.14066.33142.21967.53033.21967-.19891 0-.38968.07902-.53033.21967-.14065.14066-.21967.33142-.21967.53033 0-.19891-.07902-.38967-.21967-.53033-.14065-.14065-.33142-.21967-.53033-.21967.19891 0 .38968-.07901.53033-.21967.14065-.14065.21967-.33141.21967-.53033z"/><path d="m11.625 9.5957c0 .19892.079.38968.2197.5303.1406.1407.3314.2197.5303.2197-.1989 0-.3897.079-.5303.2197-.1407.1406-.2197.3314-.2197.5303 0-.1989-.079-.3897-.2197-.5303-.1406-.1407-.3314-.2197-.5303-.2197.1989 0 .3897-.079.5303-.2197.1407-.14062.2197-.33138.2197-.5303z"/></g></g></svg>

<svg width="18" height="18" viewBox="0 0 18 18" fill="none" xmlns="http://www.w3.org/2000/svg">
    <g clip-path="url(#clip0_15985_74960)">
        <circle cx="9" cy="9" r="9" fill="url(#paint0_linear_15985_74960)"/>
        <g clip-path="url(#clip1_15985_74960)">
            <path d="M6.75 12.5957L12.375 6.9707L11.25 5.8457L5.625 11.4707L6.75 12.5957Z" stroke="#181A20" stroke-width="0.75" stroke-linecap="round" stroke-linejoin="round"/>
            <path d="M10.125 6.9707L11.25 8.0957" stroke="#181A20" stroke-width="0.75" stroke-linecap="round" stroke-linejoin="round"/>
            <path d="M7.875 5.8457C7.875 6.04462 7.95402 6.23538 8.09467 6.37603C8.23532 6.51669 8.42609 6.5957 8.625 6.5957C8.42609 6.5957 8.23532 6.67472 8.09467 6.81537C7.95402 6.95603 7.875 7.14679 7.875 7.3457C7.875 7.14679 7.79598 6.95603 7.65533 6.81537C7.51468 6.67472 7.32391 6.5957 7.125 6.5957C7.32391 6.5957 7.51468 6.51669 7.65533 6.37603C7.79598 6.23538 7.875 6.04462 7.875 5.8457Z" stroke="#181A20" stroke-width="0.75" stroke-linecap="round" stroke-linejoin="round"/>
            <path d="M11.625 9.5957C11.625 9.79462 11.704 9.98538 11.8447 10.126C11.9853 10.2667 12.1761 10.3457 12.375 10.3457C12.1761 10.3457 11.9853 10.4247 11.8447 10.5654C11.704 10.706 11.625 10.8968 11.625 11.0957C11.625 10.8968 11.546 10.706 11.4053 10.5654C11.2647 10.4247 11.0739 10.3457 10.875 10.3457C11.0739 10.3457 11.2647 10.2667 11.4053 10.126C11.546 9.98538 11.625 9.79462 11.625 9.5957Z" stroke="#181A20" stroke-width="0.75" stroke-linecap="round" stroke-linejoin="round"/>
        </g>
    </g>
    <defs>
        <linearGradient id="paint0_linear_15985_74960" x1="18" y1="18" x2="5.36442e-07" y2="-5.36442e-07" gradientUnits="userSpaceOnUse">
            <stop stop-color="#FFB8E0"/>
            <stop offset="0.348958" stop-color="#BE9EFF"/>
            <stop offset="0.703125" stop-color="#88C0FC"/>
            <stop offset="1" stop-color="#86FF99"/>
        </linearGradient>
        <clipPath id="clip0_15985_74960">
            <rect width="18" height="18" fill="white"/>
        </clipPath>
        <clipPath id="clip1_15985_74960">
            <rect width="9" height="9" fill="white" transform="translate(4.5 4.7207)"/>
        </clipPath>
    </defs>
</svg>
